Catalina-dark/status/24/bluetooth-disabled.svg

<svg width="24" height="24" version="1.1" viewBox="0 0 24 24" xmlns="http://www.w3.org/2000/svg">
<path d="m6.75 19-0.75-1 10-10-3-3v14.5l3-3.5-10-10 1-0.75 10.5 10.75-5.5 6v-19.5l5.5 5.5z" fill="#202020" fill-opacity=".39216"/>
</svg>

<?xml version="1.0" encoding="UTF-8" standalone="no"?>
<svg
   xmlns:dc="http://purl.org/dc/elements/1.1/"
   xmlns:cc="http://creativecommons.org/ns#"
   xmlns:rdf="http://www.w3.org/1999/02/22-rdf-syntax-ns#"
   xmlns:svg="http://www.w3.org/2000/svg"
   xmlns="http://www.w3.org/2000/svg"
   xmlns:xlink="http://www.w3.org/1999/xlink"
   xmlns:sodipodi="http://sodipodi.sourceforge.net/DTD/sodipodi-0.dtd"
   xmlns:inkscape="http://www.inkscape.org/namespaces/inkscape"
   version="1.1"
   width="24"
   height="24"
   viewBox="0 0 24 24"
   id="svg2"
   inkscape:version="0.92.4 5da689c313, 2019-01-14"
   sodipodi:docname="bluetooth-disabled-symbolic.svg">
  <metadata
     id="metadata10">
    <rdf:RDF>
      <cc:Work
         rdf:about="">
        <dc:format>image/svg+xml</dc:format>
        <dc:type
           rdf:resource="http://purl.org/dc/dcmitype/StillImage" />
        <dc:title></dc:title>
      </cc:Work>
    </rdf:RDF>
  </metadata>
  <defs
     id="defs8">
    <filter
       style="color-interpolation-filters:sRGB"
       id="filter7554">
      <feBlend
         mode="darken"
         in2="BackgroundImage"
         id="feBlend7556" />
    </filter>
    <filter
       style="color-interpolation-filters:sRGB"
       id="filter7554-2">
      <feBlend
         mode="darken"
         in2="BackgroundImage"
         id="feBlend7556-69" />
    </filter>
    <filter
       id="filter7554-5"
       style="color-interpolation-filters:sRGB">
      <feBlend
         id="feBlend7556-4"
         in2="BackgroundImage"
         mode="darken" />
    </filter>
    <filter
       style="color-interpolation-filters:sRGB"
       id="filter7554-6">
      <feBlend
         id="feBlend7556-6"
         in2="BackgroundImage"
         mode="darken" />
    </filter>
    <linearGradient
       gradientTransform="translate(-1,-2)"
       gradientUnits="userSpaceOnUse"
       xlink:href="#linearGradient3678"
       id="linearGradient2868"
       y2="19"
       x2="8.9254236"
       y1="5.9997859"
       x1="8.9254236" />
    <linearGradient
       id="linearGradient3678">
      <stop
         offset="0"
         style="stop-color:#ffffff;stop-opacity:1"
         id="stop3680" />
      <stop
         offset="1"
         style="stop-color:#e6e6e6;stop-opacity:1"
         id="stop3682" />
    </linearGradient>
    <linearGradient
       gradientTransform="translate(-2,-1)"
       gradientUnits="userSpaceOnUse"
       xlink:href="#linearGradient3678"
       id="linearGradient2393"
       y2="21"
       x2="9"
       y1="3"
       x1="9" />
    <linearGradient
       x1="14"
       y1="3"
       x2="14"
       y2="21"
       id="linearGradient2398"
       xlink:href="#linearGradient3587-6-5-3"
       gradientUnits="userSpaceOnUse"
       gradientTransform="translate(-1.0001235,-5)" />
    <linearGradient
       id="linearGradient3587-6-5-3">
      <stop
         id="stop3589-9-2-0"
         style="stop-color:#000000;stop-opacity:1"
         offset="0" />
      <stop
         id="stop3591-7-4-7"
         style="stop-color:#363636;stop-opacity:1"
         offset="1" />
    </linearGradient>
    <linearGradient
       x1="66.09668"
       y1="9.3638258"
       x2="66.09668"
       y2="27.363825"
       id="linearGradient2395"
       xlink:href="#linearGradient3587-6-5-3"
       gradientUnits="userSpaceOnUse"
       gradientTransform="translate(-52.096803,-11.363826)" />
    <linearGradient
       x1="4.9554448"
       y1="2.6841583"
       x2="4.9554448"
       y2="13.496136"
       id="linearGradient7390"
       xlink:href="#linearGradient3587-6-5-3"
       gradientUnits="userSpaceOnUse" />
    <linearGradient
       x1="7.9109159"
       y1="4.5762329"
       x2="7.9109159"
       y2="11.649005"
       id="linearGradient7392"
       xlink:href="#linearGradient3587-6-5-3"
       gradientUnits="userSpaceOnUse" />
    <linearGradient
       x1="10.186814"
       y1="2.7742527"
       x2="10.186814"
       y2="13.317288"
       id="linearGradient7394"
       xlink:href="#linearGradient3587-6-5-3"
       gradientUnits="userSpaceOnUse" />
    <linearGradient
       x1="13.917011"
       y1="0.88217813"
       x2="13.917011"
       y2="15.183488"
       id="linearGradient7396"
       xlink:href="#linearGradient3587-6-5-3"
       gradientUnits="userSpaceOnUse" />
    <linearGradient
       id="linearGradient5263">
      <stop
         id="stop5265"
         style="stop-color:#a0d5ff;stop-opacity:1"
         offset="0" />
      <stop
         id="stop5267"
         style="stop-color:#a0d5ff;stop-opacity:1"
         offset="1" />
    </linearGradient>
    <filter
       id="filter7554-7"
       style="color-interpolation-filters:sRGB">
      <feBlend
         id="feBlend7556-0"
         in2="BackgroundImage"
         mode="darken" />
    </filter>
  </defs>
  <sodipodi:namedview
     pagecolor="#3d3d3d"
     bordercolor="#666666"
     borderopacity="1"
     objecttolerance="10"
     gridtolerance="10"
     guidetolerance="10"
     inkscape:pageopacity="0"
     inkscape:pageshadow="2"
     inkscape:window-width="1920"
     inkscape:window-height="1027"
     id="namedview6"
     showgrid="true"
     inkscape:zoom="50.583333"
     inkscape:cx="9.1842165"
     inkscape:cy="12.468014"
     inkscape:current-layer="svg2"
     inkscape:window-x="0"
     inkscape:window-y="30"
     inkscape:window-maximized="1">
    <inkscape:grid
       type="xygrid"
       id="grid815"
       spacingx="0.5"
       spacingy="0.5" />
  </sodipodi:namedview>
  <g
     style="fill:#ffffff;fill-opacity:1"
     id="g5-4"
     transform="matrix(0.01149582,0,0,0.01149582,-12.421986,16.277992)" />
  <path
     style="fill:#202020;fill-opacity:0.39215687;stroke:none;stroke-width:1px;stroke-linecap:butt;stroke-linejoin:miter;stroke-opacity:1"
     d="M 6.75,19 6,18 16,8 13,5 V 19.5 L 16,16 6,6 7,5.25 17.5,16 12,22 V 2.5 L 17.5,8 Z"
     id="path817"
     inkscape:connector-curvature="0"
     sodipodi:nodetypes="ccccccccccccc" />
</svg>
